apps/16/ardour.svg

<?xml version="1.0" encoding="UTF-8"?>
<!-- Created with Inkscape (http://www.inkscape.org/) -->
<svg width="16" height="16" version="1.1" xmlns="http://www.w3.org/2000/svg" xmlns:cc="http://creativecommons.org/ns#" xmlns:dc="http://purl.org/dc/elements/1.1/" xmlns:rdf="http://www.w3.org/1999/02/22-rdf-syntax-ns#" xmlns:xlink="http://www.w3.org/1999/xlink">
	<defs>
		<radialGradient id="a" cx="290.8" cy="-100.26" r="7.254" gradientTransform="matrix(1.9942 0 0 1.93 -3933.3 2303.2)" gradientUnits="userSpaceOnUse">
			<stop stop-color="#213851" stop-opacity=".9059" offset="0"/>
			<stop stop-color="#27303a" stop-opacity="0" offset="1"/>
		</radialGradient>
		<radialGradient id="b" cx="7803.5" cy="-3926.4" r="6.5" gradientTransform="matrix(8.0534e-6 2.4086 -2.6094 0 -10237 -18783)" gradientUnits="userSpaceOnUse">
			<stop stop-color="#ffffff" stop-opacity=".74858" offset="0"/>
			<stop stop-color="#ffffff" stop-opacity=".60511" offset="1"/>
		</radialGradient>
	</defs>
	<metadata>
		<rdf:RDF>
			<cc:Work rdf:about="">
				<dc:format>image/svg+xml</dc:format>
				<dc:type rdf:resource="http://purl.org/dc/dcmitype/StillImage"/>
				<dc:title/>
			</cc:Work>
		</rdf:RDF>
	</metadata>
	<g transform="translate(3360.4 -2096.7)">
		<path d="m-3359.4 2110.7 7.0001-11.915 6.9999 11.915c-0.2281-0.01-0.4905-0.1701-0.7399-0.1945-0.1671-0.017-0.331 0.023-0.4908 0.016-0.1396-0.01-0.257-0.3582-0.3994-0.3783-0.1586-0.022-0.2547 0.3508-0.504 0.3193-0.3005-0.038-0.1015-0.7774-0.4023-0.7774-0.2131 0-0.1981 0.6254-0.4644 0.6324-0.3614 0.01-0.1045-1.2888-0.4249-1.2888-0.3114 0-0.1557 1.1303-0.4817 1.122-0.2899-0.01-0.1767-1.855-0.4442-1.8308-0.2336 0.021-0.1419 1.6797-0.438 1.6599-0.3439-0.023-0.2042-2.4017-0.4604-2.4116-0.2078-0.01-0.1509 2.2437-0.4342 2.2358-0.3637-0.01-0.1578-3.1428-0.4354-3.0759-0.297 0.071-0.1999 2.9034-0.4814 2.9004-0.2589 0-0.1632-3.5959-0.3989-3.6048-0.2819-0.01-0.1143 3.4484-0.4981 3.4489-0.3114 0-0.083-3.9038-0.4158-3.8911-0.2529 0.01-0.1319 3.8154-0.4434 3.7799-0.3907-0.044-0.179-3.8852-0.489-3.8879-0.299 0-0.1626 3.8673-0.3562 3.9247-0.4147 0.042-0.2002-3.5965-0.516-3.5988-0.1983 0-0.1239 3.6462-0.445 3.7865-0.1779 0.078-0.1696-2.8703-0.4551-2.933-0.1589-0.035-0.025 3.0594-0.4399 3.1879-0.361 0.1119-0.1883-1.7509-0.4471-1.7536-0.2663 0-0.036 1.9484-0.4007 2.058-0.3438 0.1032-0.1884-0.8273-0.5144-0.8098-0.2949 0.016-0.039 0.8315-0.3973 0.9237-0.2135 0.055-0.2952-0.086-0.4656-0.055-0.2429 0.044-0.5178 0.4962-0.7165 0.4962z" color="#000000" fill="#090d11" fill-opacity=".76621" style="paint-order:normal"/>
		<path d="m-3359.4 2110.7 7.0001-11.915 6.9999 11.915c-0.2281-0.01-0.4905-0.1701-0.7399-0.1945-0.1671-0.017-0.331 0.023-0.4908 0.016-0.1396-0.01-0.257-0.3582-0.3994-0.3783-0.1586-0.022-0.2547 0.3508-0.504 0.3193-0.3005-0.038-0.1015-0.7774-0.4023-0.7774-0.2131 0-0.1981 0.6254-0.4644 0.6324-0.3614 0.01-0.1045-1.2888-0.4249-1.2888-0.3114 0-0.1557 1.1303-0.4817 1.122-0.2899-0.01-0.1767-1.855-0.4442-1.8308-0.2336 0.021-0.1419 1.6797-0.438 1.6599-0.3439-0.023-0.2042-2.4017-0.4604-2.4116-0.2078-0.01-0.1509 2.2437-0.4342 2.2358-0.3637-0.01-0.1578-3.1428-0.4354-3.0759-0.297 0.071-0.1999 2.9034-0.4814 2.9004-0.2589 0-0.1632-3.5959-0.3989-3.6048-0.2819-0.01-0.1143 3.4484-0.4981 3.4489-0.3114 0-0.083-3.9038-0.4158-3.8911-0.2529 0.01-0.1319 3.8154-0.4434 3.7799-0.3907-0.044-0.179-3.8852-0.489-3.8879-0.299 0-0.1626 3.8673-0.3562 3.9247-0.4147 0.042-0.2002-3.5965-0.516-3.5988-0.1983 0-0.1239 3.6462-0.445 3.7865-0.1779 0.078-0.1696-2.8703-0.4551-2.933-0.1589-0.035-0.025 3.0594-0.4399 3.1879-0.361 0.1119-0.1883-1.7509-0.4471-1.7536-0.2663 0-0.036 1.9484-0.4007 2.058-0.3438 0.1032-0.1884-0.8273-0.5144-0.8098-0.2949 0.016-0.039 0.8315-0.3973 0.9237-0.2135 0.055-0.2952-0.086-0.4656-0.055-0.2429 0.044-0.5178 0.4962-0.7165 0.4962z" color="#000000" fill="url(#a)" fill-opacity=".7533" style="font-variant-east_asian:normal;paint-order:normal"/>
		<path transform="translate(-3360.4 2096.7)" d="m7.8438 1.0312a1.0001 1.0001 0 0 0-0.71875 0.5l-7 11.906a1.0001 1.0001 0 0 0-0.125 0.53125 1.0001 1.0001 0 0 0 1 1c0.4289 0 0.6181-0.18235 0.75-0.28125 0.1164-0.087 0.1914-0.16205 0.25-0.21875 0.1532 0.017 0.23795 0.07525 0.40625 0.03125 0.1175-0.03 0.12145-0.15505 0.21875-0.21875 0.2508 0.091 0.5514 0.15315 0.75 0.09375 0.2201-0.066 0.22875-0.22295 0.34375-0.34375 0.1783 0.027 0.3576 0.07525 0.5 0.03125 0.2644-0.082 0.23415-0.21705 0.34375-0.34375 0.2284 0.055 0.46715 0.11445 0.65625 0.03125 0.1883-0.082 0.20055-0.1567 0.28125-0.25 0.1429 0.053 0.216 0.17235 0.375 0.15625a1.0001 1.0001 0 0 0 0.1875-0.03125c0.1337-0.04 0.13715-0.09795 0.21875-0.15625 0.1 0.049 0.1175 0.14125 0.25 0.15625 0.1541 0.017 0.26415-0.077 0.40625-0.125 0.1497 0.099 0.339 0.21875 0.5625 0.21875 0.089-1e-4 0.1074-0.07175 0.1875-0.09375 0.1366 0.1252 0.39 0.25 0.6875 0.25 0.1372 0 0.17025-0.082 0.28125-0.125 0.1589 0.1416 0.3312 0.3045 0.625 0.3125 0.1054 0 0.1549-0.06575 0.25-0.09375 0.1491 0.1224 0.33895 0.26415 0.59375 0.28125 0.107 0.01 0.12295-0.1003 0.21875-0.125 0.146 0.1353 0.43545 0.27145 0.71875 0.28125 0.1197 0 0.1945-0.085 0.3125-0.125 0.1892 0.1303 0.3933 0.27925 0.625 0.28125 0.01 1e-4 0.02225 3e-4 0.03125 0 0.01-3e-4 -0.01-0.03125 0-0.03125 0.1313-0.01 0.16945-0.10535 0.28125-0.15625 0.1559 0.1289 0.19295 0.31675 0.40625 0.34375 0.2202 0.028 0.41245-0.053 0.59375-0.125 0.1198 0.073 0.1563 0.1718 0.375 0.1875a1.0001 1.0001 0 0 0 0.03125 0c0.3561 0.016 0.493-0.02625 0.4375-0.03125-0.1048-0.01 0.12015 0.18975 0.78125 0.21875a1.0001 1.0001 0 0 0 0.90625-1.5312l-7-11.906a1.0001 1.0001 0 0 0-0.90625-0.5 1.0001 1.0001 0 0 0-0.09375 0zm0.15625 1 7 11.938c-0.2281-0.01-0.5006-0.19435-0.75-0.21875-0.1671-0.017-0.30895 0.03825-0.46875 0.03125-0.1396-0.01-0.26385-0.3549-0.40625-0.375-0.1586-0.022-0.2507 0.344-0.5 0.3125-0.3005-0.038-0.10545-0.78125-0.40625-0.78125-0.2131 0-0.20245 0.618-0.46875 0.625-0.3614 0.01-0.1171-1.2812-0.4375-1.2812-0.3114 0-0.14275 1.1333-0.46875 1.125-0.2899-0.01-0.17-1.868-0.4375-1.8438-0.2336 0.021-0.1414 1.7073-0.4375 1.6875-0.3439-0.023-0.21255-2.4276-0.46875-2.4375-0.2078-0.01-0.1542 2.2579-0.4375 2.25-0.3637-0.01-0.1599-3.1294-0.4375-3.0625-0.297 0.071-0.18725 2.878-0.46875 2.875-0.2589 0-0.17055-3.5848-0.40625-3.5938-0.2819-0.01-0.1162 3.437-0.5 3.4375-0.3114 0-0.07345-3.8877-0.40625-3.875-0.2529 0.01-0.126 3.8168-0.4375 3.7812-0.3907-0.044-0.19-3.9036-0.5-3.9062-0.299 0-0.15015 3.8801-0.34375 3.9375-0.4147 0.042-0.21545-3.5914-0.53125-3.5938-0.1983 0-0.1164 3.641-0.4375 3.7812-0.1779 0.078-0.18325-2.8748-0.46875-2.9375-0.1589-0.035-0.0226 3.059-0.4375 3.1875-0.361 0.1119-0.1787-1.7473-0.4375-1.75-0.2663 0-0.04155 1.9529-0.40625 2.0625-0.3438 0.1032-0.174-0.83-0.5-0.8125-0.2949 0.016-0.04795 0.8453-0.40625 0.9375-0.2135 0.055-0.29835-0.0935-0.46875-0.0625-0.2429 0.044-0.52005 0.5-0.71875 0.5l7-11.938z" color="#000000" fill="url(#b)" style="block-progression:tb;font-variant-east_asian:normal;paint-order:normal;text-indent:0;text-transform:none"/>
	</g>
</svg>

<?xml version="1.0" encoding="UTF-8" standalone="no"?>
<!-- Created with Inkscape (http://www.inkscape.org/) -->

<svg
   xmlns:dc="http://purl.org/dc/elements/1.1/"
   xmlns:cc="http://creativecommons.org/ns#"
   xmlns:rdf="http://www.w3.org/1999/02/22-rdf-syntax-ns#"
   xmlns:svg="http://www.w3.org/2000/svg"
   xmlns="http://www.w3.org/2000/svg"
   xmlns:xlink="http://www.w3.org/1999/xlink"
   xmlns:sodipodi="http://sodipodi.sourceforge.net/DTD/sodipodi-0.dtd"
   xmlns:inkscape="http://www.inkscape.org/namespaces/inkscape"
   width="16.000122"
   height="16.000122"
   id="svg27665"
   version="1.1"
   inkscape:version="0.48.4 r9939"
   sodipodi:docname="ardour.svg">
  <defs
     id="defs27667">
    <radialGradient
       gradientUnits="userSpaceOnUse"
       gradientTransform="matrix(0,2.3257264,-1.9794091,0,95.639677,-42.495083)"
       r="24.508473"
       fy="31.902525"
       fx="25.151318"
       cy="31.902525"
       cx="25.151318"
       id="radialGradient3839"
       xlink:href="#linearGradient3833"
       inkscape:collect="always" />
    <radialGradient
       r="32"
       fy="-16.29332"
       fx="-85.219826"
       cy="-16.29332"
       cx="-85.219826"
       gradientTransform="matrix(0,2.4222848,-2.5625,0,-84.588829,215.18925)"
       gradientUnits="userSpaceOnUse"
       id="radialGradient5571"
       xlink:href="#linearGradient3849"
       inkscape:collect="always" />
    <radialGradient
       inkscape:collect="always"
       xlink:href="#linearGradient3800-4"
       id="radialGradient5530"
       gradientUnits="userSpaceOnUse"
       gradientTransform="matrix(0.6161622,0,0,0.84635893,-66.625092,3.8891426)"
       cx="21.274454"
       cy="32.828899"
       fx="21.274454"
       fy="32.828899"
       r="32" />
    <radialGradient
       gradientUnits="userSpaceOnUse"
       gradientTransform="matrix(1.5610684,1.5204966e-8,0,0.18746473,-87.608078,25.131827)"
       r="32"
       fy="42.442974"
       fx="26.311583"
       cy="42.442974"
       cx="26.311583"
       id="radialGradient3806-6"
       xlink:href="#linearGradient3800-4"
       inkscape:collect="always" />
    <linearGradient
       id="linearGradient3800-4">
      <stop
         id="stop3802-0"
         offset="0"
         style="stop-color:#44ecff;stop-opacity:0.22495152;" />
      <stop
         style="stop-color:#4aefff;stop-opacity:0.11829347;"
         offset="0.5"
         id="stop3808-7" />
      <stop
         id="stop3810-8"
         offset="0.75"
         style="stop-color:#6af4ff;stop-opacity:0.05042017;" />
      <stop
         id="stop3804-9"
         offset="1"
         style="stop-color:#4df5ff;stop-opacity:0;" />
    </linearGradient>
    <radialGradient
       r="32"
       fy="18"
       fx="33.422222"
       cy="18"
       cx="33.422222"
       gradientTransform="matrix(0,1.3521635,-1.5625,0,-15.712199,-25.429745)"
       gradientUnits="userSpaceOnUse"
       id="radialGradient5497"
       xlink:href="#linearGradient4059"
       inkscape:collect="always" />
    <linearGradient
       id="linearGradient4059">
      <stop
         style="stop-color:#913b44;stop-opacity:1;"
         offset="0"
         id="stop4061" />
      <stop
         id="stop5468"
         offset="0.5"
         style="stop-color:#663339;stop-opacity:1;" />
      <stop
         style="stop-color:#623636;stop-opacity:1;"
         offset="1"
         id="stop4063" />
    </linearGradient>
    <linearGradient
       id="linearGradient3849">
      <stop
         id="stop3851"
         offset="0"
         style="stop-color:#ff3992;stop-opacity:0.34259859;" />
      <stop
         style="stop-color:#ff0653;stop-opacity:0.14673562;"
         offset="0.5"
         id="stop5591" />
      <stop
         id="stop3853"
         offset="1"
         style="stop-color:#d80000;stop-opacity:0.02844215;" />
    </linearGradient>
    <linearGradient
       id="linearGradient3833">
      <stop
         id="stop3835"
         offset="0"
         style="stop-color:#ffd3d3;stop-opacity:0.86813188;" />
      <stop
         id="stop3837"
         offset="1"
         style="stop-color:#ffaad0;stop-opacity:0.56302524;" />
    </linearGradient>
  </defs>
  <sodipodi:namedview
     id="base"
     pagecolor="#ffffff"
     bordercolor="#666666"
     borderopacity="1.0"
     inkscape:pageopacity="0.0"
     inkscape:pageshadow="2"
     inkscape:zoom="22.627417"
     inkscape:cx="11.476365"
     inkscape:cy="8.0098507"
     inkscape:document-units="px"
     inkscape:current-layer="layer1"
     showgrid="true"
     inkscape:window-width="1920"
     inkscape:window-height="1022"
     inkscape:window-x="-5"
     inkscape:window-y="23"
     inkscape:window-maximized="1"
     inkscape:snap-bbox="true"
     inkscape:bbox-paths="true"
     inkscape:bbox-nodes="true"
     inkscape:snap-bbox-edge-midpoints="true"
     inkscape:snap-bbox-midpoints="true"
     inkscape:object-paths="true"
     inkscape:snap-intersection-paths="true"
     inkscape:object-nodes="true"
     inkscape:snap-smooth-nodes="true"
     inkscape:snap-midpoints="true"
     inkscape:snap-object-midpoints="true"
     inkscape:snap-center="true"
     inkscape:snap-global="true"
     showguides="false"
     inkscape:guide-bbox="true"
     fit-margin-top="0"
     fit-margin-left="0"
     fit-margin-right="0"
     fit-margin-bottom="0"
     inkscape:showpageshadow="false">
    <sodipodi:guide
       orientation="0,1"
       position="595.99988,295.99996"
       id="guide3572" />
    <sodipodi:guide
       orientation="1,0"
       position="290.41938,8.121743"
       id="guide3574" />
    <sodipodi:guide
       orientation="0,1"
       position="452.04378,595.99995"
       id="guide3576" />
    <sodipodi:guide
       orientation="0,1"
       position="-4.0001107,-4.0000574"
       id="guide3578" />
    <sodipodi:guide
       orientation="1,0"
       position="-4.0001107,153.58369"
       id="guide3580" />
    <sodipodi:guide
       orientation="1,0"
       position="595.99988,117.21824"
       id="guide3582" />
    <sodipodi:guide
       orientation="0,1"
       position="595.99988,-718.34356"
       id="guide5928" />
    <sodipodi:guide
       orientation="0,1"
       position="595.99988,-418.34356"
       id="guide5930" />
    <sodipodi:guide
       orientation="0,1"
       position="595.99988,-1018.3435"
       id="guide5932" />
    <sodipodi:guide
       orientation="0,1"
       position="447.57018,520.99609"
       id="guide5294" />
    <sodipodi:guide
       orientation="0,1"
       position="447.57018,71.013543"
       id="guide5296" />
    <sodipodi:guide
       orientation="0,1"
       position="492.01488,-935.36406"
       id="guide5413" />
    <sodipodi:guide
       orientation="0,1"
       position="453.34848,-493.34386"
       id="guide5415" />
    <inkscape:grid
       type="xygrid"
       id="grid3070"
       empspacing="5"
       visible="true"
       enabled="true"
       snapvisiblegridlinesonly="true"
       originx="-4.0000646px"
       originy="-4px" />
  </sodipodi:namedview>
  <metadata
     id="metadata27670">
    <rdf:RDF>
      <cc:Work
         rdf:about="">
        <dc:format>image/svg+xml</dc:format>
        <dc:type
           rdf:resource="http://purl.org/dc/dcmitype/StillImage" />
        <dc:title />
      </cc:Work>
    </rdf:RDF>
  </metadata>
  <g
     inkscape:label="Camada 1"
     inkscape:groupmode="layer"
     id="layer1"
     transform="translate(3360.417,-2096.7185)">
    <path
       sodipodi:nodetypes="cccssssssssssssssssssscsssssssssc"
       inkscape:connector-curvature="0"
       id="path3999"
       d="m -3359.4169,2110.6761 7.0001,-11.9153 6.9999,11.9153 c -0.2281,-0.01 -0.4905,-0.1701 -0.7399,-0.1945 -0.1671,-0.017 -0.331,0.023 -0.4908,0.016 -0.1396,-0.01 -0.257,-0.3582 -0.3994,-0.3783 -0.1586,-0.022 -0.2547,0.3508 -0.504,0.3193 -0.3005,-0.038 -0.1015,-0.7774 -0.4023,-0.7774 -0.2131,0 -0.1981,0.6254 -0.4644,0.6324 -0.3614,0.01 -0.1045,-1.2888 -0.4249,-1.2888 -0.3114,0 -0.1557,1.1303 -0.4817,1.122 -0.2899,-0.01 -0.1767,-1.855 -0.4442,-1.8308 -0.2336,0.021 -0.1419,1.6797 -0.438,1.6599 -0.3439,-0.023 -0.2042,-2.4017 -0.4604,-2.4116 -0.2078,-0.01 -0.1509,2.2437 -0.4342,2.2358 -0.3637,-0.01 -0.1578,-3.1428 -0.4354,-3.0759 -0.297,0.071 -0.1999,2.9034 -0.4814,2.9004 -0.2589,0 -0.1632,-3.5959 -0.3989,-3.6048 -0.2819,-0.01 -0.1143,3.4484 -0.4981,3.4489 -0.3114,0 -0.083,-3.9038 -0.4158,-3.8911 -0.2529,0.01 -0.1319,3.8154 -0.4434,3.7799 -0.3907,-0.044 -0.179,-3.8852 -0.489,-3.8879 -0.299,0 -0.1626,3.8673 -0.3562,3.9247 -0.4147,0.042 -0.2002,-3.5965 -0.516,-3.5988 -0.1983,0 -0.1239,3.6462 -0.445,3.7865 -0.1779,0.078 -0.1696,-2.8703 -0.4551,-2.933 -0.1589,-0.035 -0.025,3.0594 -0.4399,3.1879 -0.361,0.1119 -0.1883,-1.7509 -0.4471,-1.7536 -0.2663,0 -0.036,1.9484 -0.4007,2.058 -0.3438,0.1032 -0.1884,-0.8273 -0.5144,-0.8098 -0.2949,0.016 -0.039,0.8315 -0.3973,0.9237 -0.2135,0.055 -0.2952,-0.086 -0.4656,-0.055 -0.2429,0.044 -0.5178,0.4962 -0.7165,0.4962 z"
       style="color:#000000;fill:#27303a;fill-opacity:0.753280819999999968;fill-rule:nonzero;stroke:none;stroke-width:1;marker:none;visibility:visible;display:inline;overflow:visible;enable-background:accumulate" />
    <path
       style="font-size:medium;font-style:normal;font-variant:normal;font-weight:normal;font-stretch:normal;text-indent:0;text-align:start;text-decoration:none;line-height:normal;letter-spacing:normal;word-spacing:normal;text-transform:none;direction:ltr;block-progression:tb;writing-mode:lr-tb;text-anchor:start;baseline-shift:baseline;color:#000000;fill:#f1f3f5;fill-opacity:0.90288714000000003;fill-rule:nonzero;stroke:none;stroke-width:2;marker:none;visibility:visible;display:inline;overflow:visible;enable-background:accumulate;font-family:Sans;-inkscape-font-specification:Sans"
       d="M 7.84375 1.03125 A 1.0001 1.0001 0 0 0 7.125 1.53125 L 0.125 13.4375 A 1.0001 1.0001 0 0 0 0 13.96875 A 1.0001 1.0001 0 0 0 1 14.96875 C 1.4289 14.96875 1.6181 14.7864 1.75 14.6875 C 1.8664 14.6005 1.9414 14.52545 2 14.46875 C 2.1532 14.48575 2.23795 14.544 2.40625 14.5 C 2.52375 14.47 2.5277 14.34495 2.625 14.28125 C 2.8758 14.37225 3.1764 14.4344 3.375 14.375 C 3.5951 14.309 3.60375 14.15205 3.71875 14.03125 C 3.89705 14.05825 4.07635 14.1065 4.21875 14.0625 C 4.48315 13.9805 4.4529 13.84545 4.5625 13.71875 C 4.7909 13.77375 5.02965 13.8332 5.21875 13.75 C 5.40705 13.668 5.4193 13.5933 5.5 13.5 C 5.6429 13.553 5.716 13.67235 5.875 13.65625 A 1.0001 1.0001 0 0 0 6.0625 13.625 C 6.1962 13.585 6.19965 13.52705 6.28125 13.46875 C 6.38125 13.51775 6.39875 13.61 6.53125 13.625 C 6.68535 13.642 6.7954 13.548 6.9375 13.5 C 7.0872 13.599 7.2765 13.71875 7.5 13.71875 C 7.589 13.71865 7.6074 13.647 7.6875 13.625 C 7.8241 13.7502 8.0775 13.875 8.375 13.875 C 8.5122 13.875 8.54525 13.793 8.65625 13.75 C 8.81515 13.8916 8.98745 14.0545 9.28125 14.0625 C 9.38665 14.0625 9.43615 13.99675 9.53125 13.96875 C 9.68035 14.09115 9.8702 14.2329 10.125 14.25 C 10.232 14.26 10.24795 14.1497 10.34375 14.125 C 10.48975 14.2603 10.7792 14.39645 11.0625 14.40625 C 11.1822 14.40625 11.257 14.32125 11.375 14.28125 C 11.5642 14.41155 11.7683 14.5605 12 14.5625 C 12.01 14.5626 12.02225 14.5628 12.03125 14.5625 C 12.04125 14.5622 12.02125 14.53125 12.03125 14.53125 C 12.16255 14.52125 12.2007 14.4259 12.3125 14.375 C 12.4684 14.5039 12.50545 14.69175 12.71875 14.71875 C 12.93895 14.74675 13.1312 14.66575 13.3125 14.59375 C 13.4323 14.66675 13.4688 14.76555 13.6875 14.78125 A 1.0001 1.0001 0 0 0 13.71875 14.78125 C 14.07485 14.79725 14.21175 14.755 14.15625 14.75 C 14.05145 14.74 14.2764 14.93975 14.9375 14.96875 A 1.0001 1.0001 0 0 0 15.84375 13.4375 L 8.84375 1.53125 A 1.0001 1.0001 0 0 0 7.9375 1.03125 A 1.0001 1.0001 0 0 0 7.84375 1.03125 z M 8 2.03125 L 15 13.96875 C 14.7719 13.95875 14.4994 13.7744 14.25 13.75 C 14.0829 13.733 13.94105 13.78825 13.78125 13.78125 C 13.64165 13.77125 13.5174 13.42635 13.375 13.40625 C 13.2164 13.38425 13.1243 13.75025 12.875 13.71875 C 12.5745 13.68075 12.76955 12.9375 12.46875 12.9375 C 12.25565 12.9375 12.2663 13.5555 12 13.5625 C 11.6386 13.5725 11.8829 12.28125 11.5625 12.28125 C 11.2511 12.28125 11.41975 13.41455 11.09375 13.40625 C 10.80385 13.39625 10.92375 11.5383 10.65625 11.5625 C 10.42265 11.5835 10.51485 13.2698 10.21875 13.25 C 9.87485 13.227 10.0062 10.8224 9.75 10.8125 C 9.5422 10.8025 9.5958 13.0704 9.3125 13.0625 C 8.9488 13.0525 9.1526 9.9331 8.875 10 C 8.578 10.071 8.68775 12.878 8.40625 12.875 C 8.14735 12.875 8.2357 9.29015 8 9.28125 C 7.7181 9.27125 7.8838 12.71825 7.5 12.71875 C 7.1886 12.71875 7.42655 8.83105 7.09375 8.84375 C 6.84085 8.85375 6.96775 12.6605 6.65625 12.625 C 6.26555 12.581 6.46625 8.72145 6.15625 8.71875 C 5.85725 8.71875 6.0061 12.59885 5.8125 12.65625 C 5.3978 12.69825 5.59705 9.0648 5.28125 9.0625 C 5.08295 9.0625 5.16485 12.70345 4.84375 12.84375 C 4.66585 12.92175 4.6605 9.96895 4.375 9.90625 C 4.2161 9.87125 4.3524 12.96525 3.9375 13.09375 C 3.5765 13.20565 3.7588 11.34645 3.5 11.34375 C 3.2337 11.34375 3.45845 13.29665 3.09375 13.40625 C 2.74995 13.50945 2.91975 12.57625 2.59375 12.59375 C 2.29885 12.60975 2.5458 13.43905 2.1875 13.53125 C 1.974 13.58625 1.88915 13.43775 1.71875 13.46875 C 1.47585 13.51275 1.1987 13.96875 1 13.96875 L 8 2.03125 z "
       transform="translate(-3360.417,2096.7185)"
       id="path3194" />
  </g>
</svg>
